elementary-add/apps/48/grub-customizer.svg

<?xml version="1.0" encoding="UTF-8" standalone="no"?>
<!-- Created with Inkscape (http://www.inkscape.org/) -->

<svg
   xmlns:dc="http://purl.org/dc/elements/1.1/"
   xmlns:cc="http://creativecommons.org/ns#"
   xmlns:rdf="http://www.w3.org/1999/02/22-rdf-syntax-ns#"
   xmlns:svg="http://www.w3.org/2000/svg"
   xmlns="http://www.w3.org/2000/svg"
   xmlns:xlink="http://www.w3.org/1999/xlink"
   xmlns:sodipodi="http://sodipodi.sourceforge.net/DTD/sodipodi-0.dtd"
   xmlns:inkscape="http://www.inkscape.org/namespaces/inkscape"
   version="1.1"
   width="48"
   height="48"
   id="svg4031"
   inkscape:version="0.91 r"
   sodipodi:docname="grub-customizer.svg">
  <sodipodi:namedview
     pagecolor="#ffffff"
     bordercolor="#666666"
     borderopacity="1"
     objecttolerance="10"
     gridtolerance="10"
     guidetolerance="10"
     inkscape:pageopacity="0"
     inkscape:pageshadow="2"
     inkscape:window-width="1600"
     inkscape:window-height="845"
     id="namedview48"
     showgrid="false"
     showguides="false"
     inkscape:zoom="1"
     inkscape:cx="-13.199659"
     inkscape:cy="25.529533"
     inkscape:window-x="0"
     inkscape:window-y="30"
     inkscape:window-maximized="1"
     inkscape:current-layer="svg4031" />
  <defs
     id="defs4033">
    <linearGradient
       id="linearGradient4168">
      <stop
         id="stop4170"
         style="stop-color:#f8b17e;stop-opacity:1"
         offset="0" />
      <stop
         id="stop4172"
         style="stop-color:#e35d4f;stop-opacity:1"
         offset="0.23208089" />
      <stop
         id="stop4174"
         style="stop-color:#c6262e;stop-opacity:1"
         offset="0.5908742" />
      <stop
         id="stop4176"
         style="stop-color:#690b54;stop-opacity:1"
         offset="1" />
    </linearGradient>
    <linearGradient
       id="linearGradient3957">
      <stop
         id="stop3959"
         style="stop-color:#ffffff;stop-opacity:1"
         offset="0" />
      <stop
         id="stop3961"
         style="stop-color:#c1c1c1;stop-opacity:1"
         offset="1" />
    </linearGradient>
    <linearGradient
       id="linearGradient4011">
      <stop
         id="stop4013"
         style="stop-color:#ffffff;stop-opacity:1"
         offset="0" />
      <stop
         id="stop4015"
         style="stop-color:#ffffff;stop-opacity:0.23529412"
         offset="0.507761" />
      <stop
         id="stop4017"
         style="stop-color:#ffffff;stop-opacity:0.15686275"
         offset="0.83456558" />
      <stop
         id="stop4019"
         style="stop-color:#ffffff;stop-opacity:0.39215687"
         offset="1" />
    </linearGradient>
    <linearGradient
       id="linearGradient2867-449-88-871-390-598-476-591-434-148-57-177-3-8">
      <stop
         id="stop3750-8-9"
         style="stop-color:#90dbec;stop-opacity:1"
         offset="0" />
      <stop
         id="stop3752-3-2"
         style="stop-color:#42baea;stop-opacity:1"
         offset="0.26238" />
      <stop
         id="stop3754-7-2"
         style="stop-color:#3689e6;stop-opacity:1"
         offset="0.704952" />
      <stop
         id="stop3756-9-3"
         style="stop-color:#2b63a0;stop-opacity:1"
         offset="1" />
    </linearGradient>
    <linearGradient
       id="linearGradient3820-7-2-1">
      <stop
         id="stop3822-2-6-3"
         style="stop-color:#3d3d3d;stop-opacity:1"
         offset="0" />
      <stop
         id="stop3864-8-7-7"
         style="stop-color:#686868;stop-opacity:0.49803922"
         offset="0.5" />
      <stop
         id="stop3824-1-2-5"
         style="stop-color:#686868;stop-opacity:0"
         offset="1" />
    </linearGradient>
    <linearGradient
       x1="71.204407"
       y1="6.2375584"
       x2="71.204407"
       y2="44.340794"
       id="linearGradient3012"
       xlink:href="#linearGradient4011"
       gradientUnits="userSpaceOnUse"
       gradientTransform="matrix(1.054054,0,0,1.054054,-51.611001,-2.7279009)" />
    <radialGradient
       cx="3.9722471"
       cy="8.4497671"
       r="19.99999"
       fx="3.9722471"
       fy="8.4497671"
       id="radialGradient3015"
       xlink:href="#linearGradient2867-449-88-871-390-598-476-591-434-148-57-177-3-8"
       gradientUnits="userSpaceOnUse"
       gradientTransform="matrix(0,2.4988347,-2.6434689,-6.8014435e-8,46.336814,-12.180468)" />
    <radialGradient
       cx="99.157013"
       cy="186.17059"
       r="62.769119"
       fx="99.157013"
       fy="186.17059"
       id="radialGradient3018"
       xlink:href="#linearGradient3820-7-2-1"
       gradientUnits="userSpaceOnUse"
       gradientTransform="matrix(0.27083381,0,0,0.08762273,-2.855072,25.187228)" />
    <linearGradient
       x1="27.92535"
       y1="15.149301"
       x2="33.447899"
       y2="22.986004"
       id="linearGradient3951"
       xlink:href="#linearGradient4168"
       gradientUnits="userSpaceOnUse"
       gradientTransform="translate(-37.016949,19.932203)" />
    <linearGradient
       x1="24"
       y1="22"
       x2="24"
       y2="26"
       id="linearGradient3963"
       xlink:href="#linearGradient3957"
       gradientUnits="userSpaceOnUse" />
    <linearGradient
       x1="21.013996"
       y1="25.433903"
       x2="22.805599"
       y2="27.343702"
       id="linearGradient3963-7"
       xlink:href="#linearGradient3957-2"
       gradientUnits="userSpaceOnUse"
       gradientTransform="translate(-19.118644,3.6610169)" />
    <linearGradient
       id="linearGradient3957-2">
      <stop
         id="stop3959-62"
         style="stop-color:#ffffff;stop-opacity:1"
         offset="0" />
      <stop
         id="stop3961-5"
         style="stop-color:#c1c1c1;stop-opacity:1"
         offset="1" />
    </linearGradient>
    <linearGradient
       id="linearGradient3851">
      <stop
         offset="0"
         style="stop-color:#000000;stop-opacity:0.43200001"
         id="stop3853" />
      <stop
         offset="1"
         style="stop-color:#000000;stop-opacity:0.627451"
         id="stop3855" />
    </linearGradient>
    <linearGradient
       gradientTransform="matrix(1,0,0,-1,0,48.519105)"
       gradientUnits="userSpaceOnUse"
       xlink:href="#linearGradient3851"
       id="linearGradient4326"
       y2="36.949589"
       x2="23.06352"
       y1="12.978221"
       x1="23.06352" />
    <linearGradient
       gradientUnits="userSpaceOnUse"
       xlink:href="#linearGradient3851"
       id="linearGradient4320"
       y2="36.949589"
       x2="23.06352"
       y1="12.978221"
       x1="23.06352"
       gradientTransform="translate(0,-1.4930417)" />
    <linearGradient
       gradientUnits="userSpaceOnUse"
       xlink:href="#linearGradient3707-319-631-407-324-616"
       id="linearGradient4273"
       y2="4.9969058"
       x2="19.927404"
       y1="44.949184"
       x1="19.927404"
       gradientTransform="matrix(0.83333322,0,0,0.83333322,3.9999996,3.1666681)" />
    <linearGradient
       id="linearGradient3707-319-631-407-324-616">
      <stop
         offset="0"
         style="stop-color:#505050;stop-opacity:1"
         id="stop3246" />
      <stop
         offset="1"
         style="stop-color:#8e8e8e;stop-opacity:1"
         id="stop3248" />
    </linearGradient>
    <linearGradient
       gradientTransform="translate(-57.362519,-8.0236327)"
       gradientUnits="userSpaceOnUse"
       xlink:href="#linearGradient3924-803"
       id="linearGradient3473"
       y2="43"
       x2="23.99999"
       y1="4.999989"
       x1="23.99999" />
    <linearGradient
       id="linearGradient3924-803">
      <stop
         offset="0"
         style="stop-color:#ffffff;stop-opacity:1"
         id="stop3252" />
      <stop
         offset="0.06316455"
         style="stop-color:#ffffff;stop-opacity:0.23529412"
         id="stop3254" />
      <stop
         offset="0.95056331"
         style="stop-color:#ffffff;stop-opacity:0.15686275"
         id="stop3256" />
      <stop
         offset="1"
         style="stop-color:#ffffff;stop-opacity:0.39215687"
         id="stop3258" />
    </linearGradient>
    <radialGradient
       gradientTransform="matrix(1.8930301e-8,2.2770672,-2.4088655,-4.1952268e-8,-13.008071,-19.524216)"
       gradientUnits="userSpaceOnUse"
       xlink:href="#linearGradient2867-449-88-871-390-598-476-591-434-148-57-177-641"
       id="radialGradient3476"
       fy="8.4497671"
       fx="7.4956832"
       r="19.99999"
       cy="8.4497671"
       cx="7.4956832" />
    <linearGradient
       id="linearGradient2867-449-88-871-390-598-476-591-434-148-57-177-641">
      <stop
         offset="0"
         style="stop-color:#c7c7c7;stop-opacity:1"
         id="stop3236" />
      <stop
         offset="0.26238"
         style="stop-color:#a6a6a6;stop-opacity:1"
         id="stop3238" />
      <stop
         offset="0.704952"
         style="stop-color:#7b7b7b;stop-opacity:1"
         id="stop3240" />
      <stop
         offset="1"
         style="stop-color:#595959;stop-opacity:1"
         id="stop3242" />
    </linearGradient>
    <radialGradient
       gradientTransform="matrix(2.003784,0,0,1.4,27.98813,-17.4)"
       gradientUnits="userSpaceOnUse"
       xlink:href="#linearGradient3688-166-749-2-324"
       id="radialGradient3013-896"
       fy="43.5"
       fx="4.9929786"
       r="2.5"
       cy="43.5"
       cx="4.9929786" />
    <linearGradient
       id="linearGradient3688-166-749-2-324">
      <stop
         offset="0"
         style="stop-color:#181818;stop-opacity:1"
         id="stop3216" />
      <stop
         offset="1"
         style="stop-color:#181818;stop-opacity:0"
         id="stop3218" />
    </linearGradient>
    <radialGradient
       gradientTransform="matrix(2.003784,0,0,1.4,-20.01187,-104.4)"
       gradientUnits="userSpaceOnUse"
       xlink:href="#linearGradient3688-166-749-2-324"
       id="radialGradient3015-826"
       fy="43.5"
       fx="4.9929786"
       r="2.5"
       cy="43.5"
       cx="4.9929786" />
    <linearGradient
       id="linearGradient3702-501-757-6-946">
      <stop
         offset="0"
         style="stop-color:#181818;stop-opacity:0"
         id="stop3228" />
      <stop
         offset="0.5"
         style="stop-color:#181818;stop-opacity:1"
         id="stop3230" />
      <stop
         offset="1"
         style="stop-color:#181818;stop-opacity:0"
         id="stop3232" />
    </linearGradient>
    <linearGradient
       gradientUnits="userSpaceOnUse"
       xlink:href="#linearGradient3702-501-757-6-946"
       id="linearGradient4395"
       y2="39.999443"
       x2="25.058096"
       y1="47.027729"
       x1="25.058096" />
    <linearGradient
       gradientTransform="translate(-16.076816,-9.0236427)"
       gradientUnits="userSpaceOnUse"
       xlink:href="#linearGradient3851"
       id="linearGradient3857"
       y2="44.858185"
       x2="0.85715157"
       y1="5.7142859"
       x1="0.85715157" />
  </defs>
  <metadata
     id="metadata4036">
    <rdf:RDF>
      <cc:Work
         rdf:about="">
        <dc:format>image/svg+xml</dc:format>
        <dc:type
           rdf:resource="http://purl.org/dc/dcmitype/StillImage" />
        <dc:title></dc:title>
      </cc:Work>
    </rdf:RDF>
  </metadata>
  <path
     d="m 40.999999,41.499999 a 17,5.4999999 0 1 1 -33.999999,0 17,5.4999999 0 1 1 33.999999,0 z"
     id="path3818-0-5"
     style="fill:url(#radialGradient3018);fill-opacity:1;stroke:none" />
  <path
     d="M 24.000003,3.4999982 C 12.68881,3.4999982 3.4999996,12.688804 3.4999996,23.999998 3.4999996,35.311192 12.68881,44.500003 24.000003,44.5 35.311191,44.5 44.500011,35.311192 44.5,23.999998 44.5,12.688804 35.311191,3.4999982 24.000003,3.4999982 z"
     id="path2555"
     style="color:#000000;fill:url(#radialGradient3015);fill-opacity:1;fill-rule:nonzero;stroke:none;stroke-width:1;marker:none;visibility:visible;display:inline;overflow:visible;enable-background:accumulate" />
  <path
     d="m 43.5,23.999308 c 0,10.7699 -8.73109,19.50069 -19.499753,19.50069 -10.769649,0 -19.5002474,-8.730889 -19.5002474,-19.50069 0,-10.769402 8.7305984,-19.4993078 19.5002474,-19.4993078 C 34.76891,4.5000002 43.5,13.229906 43.5,23.999308 l 0,0 z"
     id="path8655"
     style="opacity:0.5;color:#000000;fill:none;stroke:url(#linearGradient3012);stroke-width:1;stroke-linecap:round;stroke-linejoin:round;stroke-miterlimit:4;stroke-opacity:1;stroke-dasharray:none;stroke-dashoffset:0;marker:none;visibility:visible;display:inline;overflow:visible;enable-background:accumulate" />
  <path
     d="m 24.000003,3.499998 c -11.311193,0 -20.5000034,9.188806 -20.5000034,20.5 0,11.311194 9.1888104,20.500005 20.5000034,20.500002 11.311188,0 20.500008,-9.188808 20.499997,-20.500002 0,-11.311194 -9.188809,-20.5 -20.499997,-20.5 z"
     id="path2555-6"
     style="opacity:0.5;color:#000000;fill:#000000;fill-opacity:0;fill-rule:nonzero;stroke:#00537d;stroke-width:1;stroke-linecap:round;stroke-linejoin:round;stroke-miterlimit:4;stroke-opacity:1;stroke-dasharray:none;stroke-dashoffset:0;marker:none;visibility:visible;display:inline;overflow:visible;enable-background:accumulate" />
  <path
     inkscape:connector-curvature="0"
     id="path4223"
     d="M 24,7 C 14.623002,7 7,14.623002 7,24 7,33.376998 14.623002,41 24,41 33.376998,41 41,33.376998 41,24 41,14.623002 33.376998,7 24,7 Z m 0,2 c 8.296224,0 15,6.703776 15,15 0,8.296224 -6.703776,15 -15,15 C 15.703776,39 9,32.296224 9,24 9,15.703776 15.703776,9 24,9 Z"
     style="color:#000000;font-style:normal;font-variant:normal;font-weight:normal;font-stretch:normal;font-size:medium;line-height:normal;font-family:sans-serif;text-indent:0;text-align:start;text-decoration:none;text-decoration-line:none;text-decoration-style:solid;text-decoration-color:#000000;letter-spacing:normal;word-spacing:normal;text-transform:none;direction:ltr;block-progression:tb;writing-mode:lr-tb;baseline-shift:baseline;text-anchor:start;white-space:normal;clip-rule:nonzero;display:inline;overflow:visible;visibility:visible;opacity:0.4;isolation:auto;mix-blend-mode:normal;color-interpolation:sRGB;color-interpolation-filters:linearRGB;solid-color:#000000;solid-opacity:1;fill:#000000;fill-opacity:1;fill-rule:nonzero;stroke:none;stroke-width:1.99980259;stroke-linecap:butt;stroke-linejoin:round;stroke-miterlimit:4;stroke-dasharray:none;stroke-dashoffset:0;stroke-opacity:1;color-rendering:auto;image-rendering:auto;shape-rendering:auto;text-rendering:auto;enable-background:accumulate" />
  <path
     style="color:#000000;font-style:normal;font-variant:normal;font-weight:normal;font-stretch:normal;font-size:medium;line-height:normal;font-family:sans-serif;text-indent:0;text-align:start;text-decoration:none;text-decoration-line:none;text-decoration-style:solid;text-decoration-color:#000000;letter-spacing:normal;word-spacing:normal;text-transform:none;direction:ltr;block-progression:tb;writing-mode:lr-tb;baseline-shift:baseline;text-anchor:start;white-space:normal;clip-rule:nonzero;display:inline;overflow:visible;visibility:visible;opacity:1;isolation:auto;mix-blend-mode:normal;color-interpolation:sRGB;color-interpolation-filters:linearRGB;solid-color:#000000;solid-opacity:1;fill:#ffcc66;fill-opacity:1;fill-rule:nonzero;stroke:none;stroke-width:1.99980259;stroke-linecap:butt;stroke-linejoin:round;stroke-miterlimit:4;stroke-dasharray:none;stroke-dashoffset:0;stroke-opacity:1;color-rendering:auto;image-rendering:auto;shape-rendering:auto;text-rendering:auto;enable-background:accumulate"
     d="M 22.253906,7.0898438 C 13.694791,7.9662908 7,15.212484 7,24 c 0,9.376998 7.623002,17 17,17 1.406813,0 2.766184,-0.190327 4.074219,-0.513672 0.121049,-0.279838 0.334578,-0.755322 0.242226,-1.128964 -0.08528,-0.345046 -0.367339,-0.638848 -0.683633,-0.818302 C 26.467976,38.828402 25.255491,39 24,39 15.703776,39 9,32.296224 9,24 9,16.090359 15.097901,9.6436577 22.855469,9.0585938 23.15465,8.7344764 23.268924,8.3851378 23.212891,7.9277344 23.155195,7.456761 22.793182,7.201439 22.253906,7.0898438 Z"
     id="path4176"
     inkscape:connector-curvature="0"
     sodipodi:nodetypes="csscacsscsc" />
  <path
     d="m 23.166678,14 c -0.461678,0 -0.833356,0.371678 -0.833356,0.833322 l 0,1.874999 C 21.4955,16.8991 20.72093,17.22634 20.01563,17.671887 L 18.6875,16.343741 c -0.326439,-0.326442 -0.845414,-0.326442 -1.17187,0 l -1.171888,1.171888 c -0.326442,0.326455 -0.326442,0.84543 0,1.17187 l 1.328146,1.32813 c -0.445547,0.7053 -0.772787,1.47987 -0.963566,2.317692 l -1.875,0 C 14.371678,22.333321 14,22.704999 14,23.166677 l 0,1.666644 c 0,0.461678 0.371678,0.833356 0.833322,0.833356 l 1.875,0 c 0.190779,0.837822 0.518019,1.612392 0.963566,2.317692 L 16.343742,29.3125 c -0.326442,0.326439 -0.326442,0.845413 0,1.171869 l 1.171888,1.171889 c 0.326455,0.326442 0.84543,0.326442 1.17187,0 l 1.32813,-1.328146 c 0.7053,0.445547 1.47987,0.772787 2.317692,0.963566 l 0,1.875 C 22.333322,33.628322 22.705,34 23.166678,34 l 1.666644,0 c 0.461678,0 0.833356,-0.371678 0.833356,-0.833322 l 0,-1.875 c 0.837822,-0.19078 1.612392,-0.51802 2.317692,-0.963567 l 1.32813,1.328146 c 0.326439,0.326442 0.845414,0.326442 1.17187,0 l 1.171888,-1.171888 c 0.326442,-0.326455 0.326442,-0.845432 0,-1.17187 l -1.328146,-1.32813 c 0.445547,-0.7053 0.772787,-1.47987 0.963566,-2.317692 l 1.875,0 C 33.628322,25.666677 34,25.294999 34,24.833321 l 0,-1.666644 c 0,-0.461678 -0.371678,-0.833356 -0.833322,-0.833356 l -1.875,0 c -0.190779,-0.837822 -0.518019,-1.612392 -0.963566,-2.317692 l 1.328146,-1.32813 c 0.326442,-0.326439 0.326442,-0.845414 0,-1.17187 L 30.48437,16.343741 c -0.326455,-0.326442 -0.845432,-0.326442 -1.17187,0 l -1.32813,1.328146 C 27.27907,17.22634 26.5045,16.8991 25.666678,16.708321 l 0,-1.874999 C 25.666678,14.371678 25.295,14 24.833322,14 l -1.666644,0 z M 24,20.666677 c 1.84,-1e-6 3.333322,1.493322 3.333322,3.333322 C 27.333322,25.84 25.84,27.333321 24,27.333321 22.160001,27.333322 20.666678,25.839999 20.666678,23.999999 20.666679,22.16 22.16,20.666677 24,20.666677 Z"
     inkscape:connector-curvature="0"
     id="rect3557"
     style="display:inline;overflow:visible;visibility:visible;fill:#000000;fill-opacity:1;fill-rule:nonzero;stroke:none;stroke-width:1.70000005;marker:none;enable-background:accumulate;opacity:0.4" />
</svg>

<?xml version="1.0" encoding="UTF-8" standalone="no"?>
<!-- Created with Inkscape (http://www.inkscape.org/) -->
<svg id="svg4031" xmlns:rdf="http://www.w3.org/1999/02/22-rdf-syntax-ns#" xmlns="http://www.w3.org/2000/svg" height="48" width="48" version="1.1" xmlns:cc="http://creativecommons.org/ns#" xmlns:xlink="http://www.w3.org/1999/xlink" xmlns:dc="http://purl.org/dc/elements/1.1/">
 <defs id="defs4033">
  <linearGradient id="linearGradient3012" y2="44.341" gradientUnits="userSpaceOnUse" x2="71.204" gradientTransform="matrix(1.0541 0 0 1.0541 -51.611 -2.7279)" y1="6.2376" x1="71.204">
   <stop id="stop4013" stop-color="#fff" offset="0"/>
   <stop id="stop4015" stop-color="#fff" stop-opacity=".23529" offset=".50776"/>
   <stop id="stop4017" stop-color="#fff" stop-opacity=".15686" offset=".83457"/>
   <stop id="stop4019" stop-color="#fff" stop-opacity=".39216" offset="1"/>
  </linearGradient>
  <radialGradient id="radialGradient3015" gradientUnits="userSpaceOnUse" cy="8.4498" cx="3.9722" gradientTransform="matrix(0 2.4988 -2.6435 -6.8014e-8 46.337 -12.18)" r="20">
   <stop id="stop3750-8-9" stop-color="#90dbec" offset="0"/>
   <stop id="stop3752-3-2" stop-color="#42baea" offset=".26238"/>
   <stop id="stop3754-7-2" stop-color="#3689e6" offset=".70495"/>
   <stop id="stop3756-9-3" stop-color="#2b63a0" offset="1"/>
  </radialGradient>
  <radialGradient id="radialGradient3018" gradientUnits="userSpaceOnUse" cy="186.17" cx="99.157" gradientTransform="matrix(.27083 0 0 .087623 -2.8551 25.187)" r="62.769">
   <stop id="stop3822-2-6-3" stop-color="#3d3d3d" offset="0"/>
   <stop id="stop3864-8-7-7" stop-color="#686868" stop-opacity=".49804" offset=".5"/>
   <stop id="stop3824-1-2-5" stop-color="#686868" stop-opacity="0" offset="1"/>
  </radialGradient>
 </defs>
 <metadata id="metadata4036">
  <rdf:RDF>
   <cc:Work rdf:about="">
    <dc:format>image/svg+xml</dc:format>
    <dc:type rdf:resource="http://purl.org/dc/dcmitype/StillImage"/>
    <dc:title/>
   </cc:Work>
  </rdf:RDF>
 </metadata>
 <path id="path3818-0-5" fill="url(#radialGradient3018)" d="m41 41.5a17 5.5 0 1 1 -34 0 17 5.5 0 1 1 34 0z"/>
 <path id="path2555" style="color:#000000" d="m24 3.5c-11.311 0-20.5 9.189-20.5 20.5s9.189 20.5 20.5 20.5 20.5-9.189 20.5-20.5-9.189-20.5-20.5-20.5z" fill="url(#radialGradient3015)"/>
 <path id="path8655" opacity=".5" stroke-linejoin="round" style="color:#000000" d="m43.5 23.999c0 10.77-8.7311 19.501-19.5 19.501-10.77 0-19.5-8.7309-19.5-19.501 0-10.769 8.7306-19.499 19.5-19.499s19.5 8.73 19.5 19.499v0z" stroke="url(#linearGradient3012)" stroke-linecap="round" fill="none"/>
 <path id="path2555-6" opacity=".5" stroke-linejoin="round" style="color:#000000" d="m24 3.5c-11.311 0-20.5 9.1888-20.5 20.5s9.1888 20.5 20.5 20.5 20.5-9.1888 20.5-20.5-9.1888-20.5-20.5-20.5z" fill-opacity="0" stroke="#00537d" stroke-linecap="round"/>
 <path id="path4223" opacity=".4" style="color-rendering:auto;text-decoration-color:#000000;color:#000000;isolation:auto;mix-blend-mode:normal;shape-rendering:auto;solid-color:#000000;block-progression:tb;text-decoration-line:none;text-decoration-style:solid;image-rendering:auto;white-space:normal;text-indent:0;text-transform:none" d="m24 7c-9.377 0-17 7.623-17 17s7.623 17 17 17 17-7.623 17-17-7.623-17-17-17zm0 2c8.2962 0 15 6.7038 15 15s-6.7038 15-15 15c-8.296 0-15-6.704-15-15s6.704-15 15-15z"/>
 <path id="path4176" style="color-rendering:auto;text-decoration-color:#000000;color:#000000;isolation:auto;mix-blend-mode:normal;shape-rendering:auto;solid-color:#000000;block-progression:tb;text-decoration-line:none;text-decoration-style:solid;image-rendering:auto;white-space:normal;text-indent:0;text-transform:none" d="m22.254 7.0898c-8.559 0.8765-15.254 8.1222-15.254 16.91 0 9.377 7.623 17 17 17 1.4068 0 2.7662-0.19033 4.0742-0.51367 0.12105-0.27984 0.33458-0.75532 0.24223-1.129-0.08528-0.34505-0.36734-0.63885-0.68363-0.8183-1.164 0.289-2.377 0.461-3.632 0.461-8.296 0-15-6.704-15-15 0-7.91 6.098-14.356 13.855-14.941 0.3-0.3245 0.414-0.6739 0.358-1.1313-0.058-0.4709-0.42-0.7263-0.959-0.8379z" fill="#fc6"/>
 <path id="rect3557" opacity=".4" d="m23.167 14c-0.46168 0-0.83336 0.37168-0.83336 0.83332v1.875c-0.838 0.191-1.613 0.518-2.318 0.964l-1.328-1.328c-0.32644-0.32644-0.84541-0.32644-1.1719 0l-1.1719 1.1719c-0.32644 0.32646-0.32644 0.84543 0 1.1719l1.3281 1.3281c-0.44555 0.7053-0.77279 1.4799-0.96357 2.3177h-1.875c-0.461-0.001-0.833 0.371-0.833 0.833v1.6666c0 0.46168 0.37168 0.83336 0.83332 0.83336h1.875c0.19078 0.83782 0.51802 1.6124 0.96357 2.3177l-1.328 1.327c-0.32644 0.32644-0.32644 0.84541 0 1.1719l1.1719 1.1719c0.32646 0.32644 0.84543 0.32644 1.1719 0l1.3281-1.3281c0.7053 0.44555 1.4799 0.77279 2.3177 0.96357v1.875c-0.001 0.461 0.371 0.833 0.833 0.833h1.6666c0.46168 0 0.83336-0.37168 0.83336-0.83332v-1.875c0.83782-0.19078 1.6124-0.51802 2.3177-0.96357l1.3281 1.3281c0.32644 0.32644 0.84541 0.32644 1.1719 0l1.1719-1.1719c0.32644-0.32646 0.32644-0.84543 0-1.1719l-1.3281-1.3281c0.44555-0.7053 0.77279-1.4799 0.96357-2.3177h1.875c0.46 0.001 0.832-0.371 0.832-0.833v-1.6666c0-0.46168-0.37168-0.83336-0.83332-0.83336h-1.875c-0.19078-0.83782-0.51802-1.6124-0.96357-2.3177l1.3281-1.3281c0.32644-0.32644 0.32644-0.84541 0-1.1719l-1.172-1.171c-0.32646-0.32644-0.84543-0.32644-1.1719 0l-1.3281 1.3281c-0.705-0.446-1.48-0.773-2.317-0.964v-1.875c0-0.461-0.372-0.833-0.834-0.833h-1.6666zm0.833 6.667c1.84-0.000001 3.3333 1.4933 3.3333 3.3333s-1.493 3.333-3.333 3.333-3.333-1.493-3.333-3.333 1.493-3.333 3.333-3.333z"/>
</svg>
